X:1738
T:Earl of Dalkith Reel
O:england
R:Reel
M:C|
A:Westmorland
N:P33 1/2
K:F
A|FCB,C F/2F/2F AF|G/2G/2G BA GDDG|\
FCB,C F/2F/2F Ac|dfcf AF F2::\
c|f>gag fefc|d/2d/2d ba gdde|\
f>ga>g fcdB|AcGB AFFc|\
f>ga>g fefc|d/2d/2d ba gdde|\
fcge fcdB|AcGB AFF2:|


